-----BEGIN PQPG PROTECTED PRIVATE KEY-----
eyJzYWx0IjoiblNnTnoxRGtxSEYrMHNNMWFSZXJQQT09Iiwibm9uY2UiOiI2T3k1
VzJHY1ozZXpuNzNXIiwiY2lwaGVydGV4dCI6InF4czh6aFkrOHI3WS9Tbnd5MGE5
OVprZGx4U1QxVnoyZzFjSzRTam9rTzcvVkFSdnl4dnh2d0hTUW5oMHlmdDYwQ1I1
UGJPM1Q5R0lONytVejh3MmJmNlV3OUJheGFid3RZZWRxNTV1OEhVUkhkUWpOcDVE
WVFIQnM5M3hNVTYxN29HZndmQmNWUmM0RnliNTZSSHVGYXdLd3BIQjYxWjM5TDNX
T01kS1c2cHM0R1pqelNQaWVPZ3IyUWtPd0F0a3k2ejk0VUtVS2lZRzFSQUlUMFZT
YTZiYVc5WXZ1dE1IeXgzOHZteDVrd1F2aGRiaHlVTGhqYmFZa3lhYnNyVTRpMnUv
N01CRk0wUGxzMWdEdWFxbm5Wb0ltYWNVM3REYWIwdnV2a0ZXdlZvM0g1R0FaekdC
MXpMYmhUNDNtVEhaNGVOdHlyQUZjOVpUZ3JvUWg0dHE5SDZnNXdEeUJhOGl1cUVo
UUxubmttZSsrT1U0bWI0SGphbHlXMGpla1RIcC9OSEF0dDF5d2t6TElUNXBlM2tE
WFFCTHdmRVd3V252cEF2ditRV0RONlA4SUtDeElHZ2V6amVLZFJUaTMvQTBIZU5D
M1BEa2N3UElHOGFYZG5OWVN4aXFXaTlFeFErT2kzM04xSXAvTEJVdFV1aFJiaFAz
Vm9pWVlYN2YyTFYwN000WFJLb244YjVoN0F2MWtiNXJXNVNqSkRacVZzWHZSWEtF
MEt6Lzk5UFR1eHJhUDdwdjZxbjQwMkUzNmhqMGhNUzlWdFNZNTFua1FvaENuUE1B
dzV1aStnTnNFYmoxMHVrdWZhTFA0SXJWbkFKMTUwMFNjSUNVbFlXWUoyUm1nbi9z
dlA1dHV6Uml2U0w2UkRlbmE2cDU1VGRrRCt0dFVzV01WTDlaaGY3dFdUeElmM3g1
cTZYWk5jTy9qNlE2dlpGMzlDL3UyUVU5VWE3QnJ6WVo1ekNtQVpUNGExWkZPVVg0
Tm1sbXlTM0d4cHpDVzdIYmtZVUlsMGdKU0oxK3RQQVpwZTc0bXU2U2xLeEdpWGhw
ZU14VDZPV3crOEZERjNmTHpMTDNlUkVpbkxtNi9aUUhDRjRQUnEycHpNejc4NzhH
b0F5QWorKzRuaThTN1NwOWd0Ri9TVlFYaTI2RnRzSnpWMnhrd0hjWjRCdXBjT3Bp
QlRkRWhTdUlraWxXSUhsSTFBWGRESGgzcmk2dFdYMWs2b3JlQnhubENTQmY3OW00
MWxCQ05zVzg1ZFF0RTBsTTJidnZ6Y3B0YnZlYWtCOXFjbXZSZFpoTEo3eFdQVmdm
a21sQzNWREhPWGQ0UnZxZXJUakNHS0RJRm1DWWdZaXI3MFp1Q1VYYWViaFRDbHFm
cnJoK1BrSTBTWUx6bmxWRyt1alIyWk1UVHpmY1o5cENFMm84RDhZb0FwdEZrQzFI
d2UrSDA0dEZjRUYwTjdwNktMc1NaTnorQWtjZGI2YlhVczdkTTBkTy9teHorK0Fo
dzArWGtKeWN1NDR5L2YvOXhwSVlCVFlsa3p2TldIdlhKM04xZFNERXdaeUs2Tjla
WlJVbEtaQXpyM0xqMkRScEJXMDJUVFh6ZGFlZjIvbkRXOHdoQ01QVUFsYVVJMGRR
V0dZc2N3NDBnU3BWdHVXM2tqQ1hYNGtZTXd2MnY1RzVMd1lEeDlzbHpEcHE2ckdh
eU5tWldaMzhpekZJNlNOeWVUbWh0MmZmS2Zrb1pxYzVTU1hoOTZpK2grL2ptVGxB
RlpTOG5PMGpMK1gzdDYxZk9YQXZ0M21pZ0V2dGt2ZWl5Z2lxVVhqY0FFQmMvejRK
clB0MlJXMWExTGhMbFl0bTdHM0FiVHI3QUJkL0V4ZDVEM212a25MaWdJTElyQnhs
dkY1WGV5eGdHWU04VDE5bTN3RDAraVREZEI5NDFiSnNQUCtWcXZTUHVDZ1NqbTlq
djIyZnRlZU1xR2lYTXc3ckt0L3U1dFFvbFdYaFEzSDZLajUvbUZPaVliUTNST28v
K054dm1jcXVEZDdCelBCSGtRcEZnbVdCcGNiZndLOUhCM1ZQRUl5ckMyK0orQTB1
K2d4WXM5a1hmQnhMZG9kY2tHOUU0c2xsZDV5TTlRYU96ODB4K3FDd0xhVXR6SVpW
clVrYlU0V2NmMEFxYUNtZHhNL0IwRmZUN21Jc3d0MGxCMzUvT3pUaURtQkxXaDNk
UHpzcGQ0RDVtamVDNktaVFhwRXE4aEsxVUE5dnJvQ0ZEd0M3d0M0d3ZOanhsL1hB
WW9nMjdvVG5iR0cvNUtUVlpEcjd6cENGN0RzTTI5Nno1WGMyRm80dW5wSWd6S2kv
M0FiN3gyZi9KZ0cwYXd6eVhpOEZSWGtaNmN0ZGVndllPMXVreUw4WnBjSm5ab0VM
K2puY2Y0ZmFyMHdCRWFma1dxeTVZWjlFb2ZXSlFOcUs0M1Q5Sms4UWMvbm5ZeEY3
OG43eERHVndUKzlZNFVIN0pUaldPZHFjNEtFZG4yYXNTdmhRK2tEQnF5RmptTHZ0
K0ErcFhVTmdrbkN6T0V1Y2VrTWdyRXBFQ1dZWE16RER0Q0M2ZGNPYnlLeG1oWHZo
TzJrUXBUS3pWN2FXcU9qeGpoZDRiQ3RORG5PTlhLdEkwMVNKR0VhYkhueTU1NVJv
bE41Z3VTMnhjdVc3NmF2MUsxR1BVblpIcGZobnNPY1p5Z1dwWmdGNWtoSGpEeWYw
QWI1cURiSHI0UFhnTkZWKzY2WGdxdmkrRENtUllnSFQvSnNRVEJUQktEa0ZPYkhi
NlQxZ0lCTWFNYUdqdVUrNXlrTnR6blhJaVhBcWlHWGlMYVFoZkM1TUZBTEZqYzEx
WUpaNHNSSWRMMGNYeVdTOFFxUEFqK1h5Z3Zac1hNY0E0Yy9XMzVXMmFyek84VGl1
aFBmeURQbjN1TWl1SFVzVDJ3ak5kSXQvYzhsS3UrR2xLS1djMWlXQ1hLS3BRT2Vo
eU9rbVlpU2VDYS9Nd1BJTlRlTjd5N0ZSaGNpa2gwcWp5MnA0SFRzd3hPeTliNks1
eTViVXVMYlZaODdoUW9sR1FqREo0ay9jTzZkdHE2OEdtY25OU1BXWWRZV2RNUGRp
YkZyTUxFbHBKbEVXYWpxY0RnVnJsSTBKeVYzdHVWaVEvRjZJL2JjUWhBY0kyZjJy
SWpEYTVzUkxqZFZhL25HZVY0VXBOTlBjNzhxdCtrNjRuWHBlMWw1VUxjVUlNaWNk
UUpFQ25zd1ZodDBpSHQ3eTFwSnRoUW00RzF2dHZRMExQWGRJYzdXc1RTaksvMlhj
VzNJSUwxc1I3RG9QVnUxelp0VDFaT0ZJQjBzMG5aelk3MWRYRklaRzdtOTI2MEVY
UU0yOWpaVHFrN2d1OEloSDVkcEY3a0loRGhxVTFQRGlzaXdJMWo0bnhKTHZUdjY1
SEVyeWZieHhpcDJYMFNSRVE3aUJzeU10NDdNK3EybU5BSGU3SUlDR1VZQTBYaDVS
RWkzS01MbVpoRzVLMGFyMGZFNml3QVlZVC9xaEg2SXQ1Wi9wNVJMRmFZV3ZUWkky
MUMySTR3L2pWdDBUMFNiU2hITEw4TDNBVG1xK0lKSEh5NlNYWnlUVXJ1b0MvenE2
NlgwaGpCejJXVVJIVTQrbDhJV1NKT1h6TDJuUXFXeFprNCtCNnhCZ0dUMmtRWkpu
ZzluZnUvNmVyMVdBbE1jUlYxc3VaWE1rTVJOZ2ZPaXh3Tzkvc29NR3MrYVhmNk5w
SHRBV3NCSkJDTXpyNVJWMW5tVjJpMk1xQWV2THZUWndEUG1uYTUxMmlzNElGK0pQ
TGt4V29iZDViWmZldk8xcDhGUjFrVjlZd1g5cnRwaU1nQzlIdWRTRUhxMmw2K0Jv
U0dtTGl3WjZERnplbUIxYkNBSGJGSDJTaVVUbEp4em5IQ2J2YzZKMytCYnRIOWd6
L0FWd0JEQVljN3kxSjhNc2dCT0RLcmJqUDNTM0VraWppTnRwRHdKTHJkcjdqVlhP
NllCUTgycndsRTdud1FTYXB5TmlCMUVHOVE3L0YxL0djczQvZ21KcHNFMlpKNjYx
NFkxMFI2ZzRSQVN2U2w3anpObWw4NXVxZFhRRC9MU1p4c3Bqa05ZLzQrUm1DcUx0
Vlc5ZnNCZ2hQeXkyV1k3ajVVWHZqQzNiN0ZZT1UzZWJncUoxMnUyNU9jVGRQQzZM
VU5HL0U2bUhoRzc2aFgvTEZrdlVQdnkrVWhFMkFXNkZCODZzdGs3WkVXblhDdjN5
Vlk3T1RNUk5yZy82NFpWclEvcmZyRGlhMWxodEFuV2VyVnE4Z1F2ZXdWaE5xMzlK
dng4TGFzQXB5b010VmhUTHgvYnRFUUJxZGNMTUp3U3pBSFlCOEN5WUcvdHU5ejQr
VVhISG0wRG5NL25aR0Q5R3FtSkZ0ME9jT3IycTZBcWovc0tQZk1lbVA3WkMyKyty
cm56OVo0dWtxMElsd25xbURZTEUvQnZST29MT0FQZ29FTDZtTlVIU1lrSmJRNWox
TmJzRGZkc3dwT2lwYzF0YUVLSzA5bnlXTnhjVkd3QmlKNjR4eURacEpIWWlSODZL
WTE3YXRwZXM2aFllTlhhYzg3ME9lNjg1SGhtYUpIYXRJZkd1SFU4QVlicjJ4ditO
WXVuTzZ1RWZndC80UkRpRUJJdnZFbXlxRitEWWlMZWlEeGRPNmU0NW9SU1pXT3ZW
anN5TS9paW1QOE42MU9jUWZXOXZYUllML2t1eUd6aXF2VnBMWDdEVHZHWjJUOW1D
cFdzaVZsd1o5L040MkhzaUlmK3JXaTAxRXJvQWtCY1c5UytRQUVMUDA1TUdFWnRn
VnhkTTN4cXMyM0RRK2ladzhISUJiVmdlRHZaRjlaamxzanBpRVRVdU1YVko4Tmxh
UXRKMDFDeDV1djgrUUZCcjNMajZMTUxCUThvQ1VPN0QyVXhmS29sQ2MzOEo1M1Mz
Y0pIQnphbHZzaERjQ0dOaEZOSU52cloxNFEwSHRhc1dtUlhTZVhzd0tyQWZtUGw5
RHVHTTlsYmN3dUtWc3hsNWhwTWlkY1Q4bDhLaCtRVmlWZWZPWGpmS1FLZ2VSTDR1
OXRyYVNkTEVxQkRHSGpFSERCQ05veDdUd1ZsbnNTUVhXOVBQVGdZZjNNaCtoY050
aFFGU0pkMlFvUUZvOUVqaWZrbENJaStOOFdpVEFwbDBRNnFacU1Ja3VTVHZ5TVhx
OXRpN2dteEFSa1RRcW5wa05sdU5MZk10c2dDRHZCK2JwSzFBVmRxZ1B6aU9Xa1ZF
cXhQVTZEZDhNSUV6K3VtZ3VRVXdRN3EwM0xmMGhWNUxPQUVJQnRybmpRcytITXRB
MUIvU0tnRzBqdmlhbkhUcDNvV3RHWGJnb0NoYS9RWDlvVHpJVVo5d1A2c21MeTUw
Vk5vK20yNkMwbUVab25QN2NSeU80VDR6SVh1VGo5OGg5b2Z5ZVlwcW9tK2swZ1Jh
TVdudnAzMTBtOU1wYWcxUDFuQXlpM3MzcFQrOUVKOVRHclQ4TWQxa25MeE1VQSs5
eTZZZTNXcTEzd040dzhtUzloRHFSbEd0VXhENGZtY25KR25CcWhtZ000UzEwLzBx
MVJIcStuL3lzb05pMUxSTm5FWElhc2tyS3h1bCtrd3B6K0NMYUNxNWE3SmF4T3Mx
WUVmMGhzZjVURzVpWmc0ZGRTQXlQTnhnZFM3UWo2QkpkZmxrbEtPWGQvOG1Mc3pD
MFVKTGFoZCsvbUVoUzM5ZGlRcklPK3ZRTVRKbTlNSGRTVDd0L1JGOGt3K1VqK2Iz
ck0ydk5Vazl6eTNlSTNyRHN4SmQrbGFMd0h4a0gwWG9wTXM5aXlicW11MTJwTXJs
NDU3ZkFkWVd5R3Z0ZU5INEkyQW5Bb2FsWTY1SkdvMUVBSDZ2U0padHZWY2NvVk9I
VWFFaU1SZG5lb1IwcU8ydmwxaUZIelIwOFd4QytEYXVqaVQ1ZUM0eDdmS2pXRkdq
UGpybmtHeUdXaDYvb2NBcHlFZzJaZVZTc2o3VUhXMFlnMUMvWFdta0VkUFpTZUI1
VXlFaU1kaHROZnkvUXRISFV0NmVyWkxGMEprREY0RjAwNndxYWpwVnozeXJrV0Zo
bmxqY0U5WjF2aUJQekZRdlNVRTBzQVI4V2ZnZERDMHRxSGUwYkJUaFhzd0N0Zy8x
VUZ2aWxCN2NEbVRUd1FJdk1JaWVCZ2NTaXU5SkVYaEtjTEtDK04zMU5yRzJxTkZD
SXE0bUVhQlZTcml0TDFOVUtqTzZVM3JFejJ2d2FTNWdvWHlUc1ljcTZHWjFMTEFG
Z0Z5UDYrK0NEV2VuSmtZZkNRczlDYStQemVkbklXZEgvSDRvK2d5dWNodlJ6N1hy
dVJTdUkyUmlCeGlRejFsTHM1THo4TWFCSTYvTUw5Zk4xNTkxcVBmV1N0RnppNnhZ
MXYyWWhzazdzQlFXUjBpaENMSlRMclQ5cXJxRDNZMW9hVTVVOXBtK3BlZm9oQWtq
d3RPZzVrd284WXZySXJiNllzQU9mN0xOT0s3RG8zMDNIVzhWOGRyeno0YVNTVURr
azJnQXZiMDN0MVlkamFqVVlhVUptZWc5cGtKNXFma0ZsdjlGNzFEeWZBT1EwdnNB
WlNTQ2RUWVNOanlENUx3UXlpZms3Nkt2VTBvbzNXclNiZmo0V0Yva2xZY3JKRy9h
dTlWdEt3RFhwRnk5U0ovWUJpd2V5ZHk5QmF5T0NPOEVvc3dYbVlNS3B6ZnYvRWJP
SE9EUjh3N3krclcrUzdCWWQyMU1OWndjTFFzd01tNS9NZFh5UXczbUFnZ1lrWXk0
Qmo5S2xKaEZsZHlBdHBHUnh0Q0tyejA1L051RkYwT2IvRzRmcE5KbS9sRnh6SFVo
UG5Majhaa3RmZ0lwSmpBZHRNV09UYzdOVnl6VXJ2MFRTVDlhVm11K3piZTZUeW9n
cU9qMWtlWjN0bEdUSGVyTTF2YlQwTjJKTGIyMWg5RjIzN2d2bmV1cGZqMm1FcEhV
bERWbmNlNXhNVUtVdHZ5ODQ2cWRCSkRzMERWazJzT1RldnVUM3ZCRUtPNHZMQ3hm
c1g5QlpNUmZybG94U2tqYTd3Mm1VSnRNMlQ2aW44VmRDWFFzNjloUFZPQUJCa0Uv
VUhjUndnSmhEdUsrd1YrYUxTWnp6ZlNBZGxjNzhLT0NaWDFVOWJBUUl2bzZWM2tX
eVpvR3BSR0M5RXVlL08xOVQwUWpXbmxLcDRGUDB0elpFZTRTcDY2NlMzbWdlVVhu
SzZydlpqRGZHbThWaVFBYUNxd2I1b3dXRzN0bXF6Z0xRVkVUVHpzaGZkVUdLT3hJ
Z3Nqcmc3VUI4eXBXajdYMmpiZmZhUUhIdmtYa3VUQktEMEVTUFRRQkFpYTAvTHlP
ZFZpT0l3MkpzcTZscGJ1ZUx5QjB0NXNaNmkvK1V1Y1AxdzlSc05hVjU1Z1dQckll
SjdGV3liTWUybXNCZlJsb0ZoeHA5b09YSS8xVGtnY0pNbzlsN3kweWtEdStRdHhI
eDFHdjBuMEY0ODJhaW55eSt3ekViem1tYmJpSHpBZ0tvZ2s3SEEwRCtTNU5MekZJ
TlFVNnV3OWJtS1B0aDcrSXZTN0pBUUxmaGtzVEMzVEFLdHBxRjNvaXBYMXhkc0lv
YUQ2QVlObmx0U0NyM0xZcjF0TGpaUk1oUXhYazJXcGZZSCtXOUpDVWxUTFdQMHRR
Nk16K1UzUCtqYlVMMFJrZlNXT05DQmNJc3ZaVWJDdHV6dXphS0s0OGVQYWs1VFg1
NWpQcDJONHU3ZkQrWC94TXd4Q1lJbXE0aFJGM1NXZHpPUDlncVJwZTlCT2VSOHUx
RVl6ZWVIa0VndUh3T3c2QmdPcnZHVEpXUlQ3bWxzeWY0ODk4NGl2enBIdnZqZnBR
Sll0dTRpQXFBM1ZLZkxYOWFvSkNtejQ0UDVNUFIzV2t0WFBWTlAwZWdMWHhQUTZ3
K3VEVEZiMlNLbHAwU2t5NjlwejFDQ1A2dWdBNDUycjh2ZFhxN2VBRWNjTHdLTzdK
bHd2ekJOcmVUTEtJa3Y2cThPMFRWc1hibzhYcmc1bHlCS0tVd1pYY3QzVURNRnUw
Q0llZUExUzlTTWptb1Baa3YvRHd3U0V1bmVvUU5na3g2dldJSlFvMVJwaWI2L3RS
K1BCbXpkeW9zbHJrMnVjRS82bWlZNXhjaFRsV05pd01YaHpMM0Z4NDJJNjVZUE5k
anFWU3JubmlwTEd0aklNYk9aZ2hVcmVoMFQ5SC9nRzBGMm5UWFlJdU9qaWtnYXBn
bE9EYXU3eTdTbTlhT1dmTG9yVkNSN0hZcWZVNUZCSkZDa21UMm5sNW9XZVNiNjJP
b0Z4UDRHTXFtOEFUTStLUmZ3WU1KTjNhMm9CbVdhaERYU3RKb1R4Q2hVVXk3Um5P
OUZVaDVWTUszaEJybnNQYmR2M1lyMzcxbjJ0Y1MzY1lPekNCQXlnR2d2cFRTSnU5
bWdVbU42KzBBdHkydUVoL0pvUjlaWi9yZ3l5NFRWcEZ0eUlpWGd1QlJrS1hKTDFu
YXJLQ3FzNFIyN0VXcnB6UG1GTEhGeG5FZ2ltYXhaeDdKSTFIKzNSeFBLWHNYemFo
K0lhWFNLN2lVVjMyYTZVUmJiWmpQaktCZ1MzNXk4TGl6L1BMQU1IdE5BckpKYnAx
K0k4enQvbmVDZHlvV3MwMlJEVk5rc00zb29vTnBmQmNLbk9kTnVYNzg5SG5VQjNV
N1Y3N0FUa0lkY2M4NW1wQjErWE5xMGdTTmtucUgzc0RhYjlUcWFTVlBwcmQzcDJr
VTAwWVZJd08zdDBRcWJBYTFKVG9mRmZGV2pkcjdjZGpuTzA2QWxCc28reTJoSVcw
MXpyNFBBdE1RZHVGZWZ3dWIvV1dZZm9FcHJsc0xIcGZ1Mld2dSs3cnJES0dtS3N2
UENYKzBNRFBrR0hYWXc5SHhJL204OEVUMmhMT2xoNElRNGNTK3NZY25IV2JSWjVr
M2ZaTUhIa0pHWmQ2Y1d3NFU2cDBwRk5ENUtrRTg5NVhGdVFVVSt1d2l6ZjdyV09h
UUpXemxWTndzbzdSWkFwZTdxeGVIWHpwYjFwcTNjMFpWTnFkK3NibHc3amJwblFO
aE9lTVBTWnRiSVFXVk13QVdtc2xTNFJvZUFMcUlFQkI2RGRUa05jWkYzZTBvUkdQ
NVg2S0VNL0F2ZVVyTE00bmVKNmQwUEI4Wm1OMy81QS9vN01wcWZyNy9jUTZBa0FL
K2lzQTlFN2lOSWJDMW41M3UrS1dYc3FZUnlMcEUwQm1DNFRoV2FueExITnZUMHE3
bmZwQkI0b0tka0FKRjdkbVZzYUtkL3h3SFFTU1JMWkxRaWwzczBMZ1UxNXhiQXFF
SFNlZlQyN1g5SDB6NWVZMzVJcis5SVB6K2c0Nkg4ak5NWnY2SWhWcWIvQU9yRnhZ
eWlYdVJNSmR6TElQdnFpVFZhM05YWktHYUNyOWI3VVczTzBqVnlrZHd2OEd4aWdO
Ky83eHVQYWNQNHkvdW5jSE1MY0swbk5LbEY4dGZuNjBnZUVTRlZqVDdJa0ZxVys5
K2JyY2ZRcWdSZmllYW1zVzl3aldWQXd2R09PSHl4Wmt4OHlIeW9TazFjRmowMmh4
ME1JNys2M2V2aVFORnFKWndVVUhMem5oK3JsU0pBZGRoZ2s3Y1FWVmdBdXR4WE1Y
TkpJWE5oa1ZwMklDTThqMXFsVE9wMVhWOTR5d3FYa2lQVTdOZ0l1YlJLbldLUFdr
RHdFT0tpUzRFSWVhMnU1YnBDSSsxR2lkYjdidDR0N1E0QXlxdThLSXRuVnJEVHVM
TXoxYmdyRU9uZjJ3TVV4eFcvSlZqaXc3WVRpTjZubEtCVFFudkNCRzg4V0dUS2s2
U2xIU25KUGJ3K1p4bytCQWxGZFpuZ3g1NW9aWFJjb1VXTGFuQ3d4V21SblQzR3Zt
clBKY0FUcjJXN1RWSithRkdqU3JkckZmNEV3cUVNSm1adEZ4OGt1RXhEc2FSSUxi
MWM5bVM3aWNHRU14TWozU2tSMUhxZU5SZEFJZ2Yza3ZLMkNDaGYya3FPa1ZSSjly
Z0M4b2tDOThtNXBqZVVkQkc1ODcrZVV5NVA4VTlRa1BOQ2hBWHN1ajRkbjdPOTR5
QUVaOEd0VjQybkk4dDNnRE42ekRTeXVzbHRsTnpWeDQwQVZ6YWVrQ2lqTmRHMEJD
M1dsWTdjdk9VUVgveE80d3Bad2ZFTHBZb1dUZ1VGT3BRVExxZkM0bmgyQUROWEIr
Y0kxWGppak1FcW9kUFJHWnZZalkxRVBCODZrQ0I5dDNheU41VEwwamdjSkdFempV
MlFUS0RyakxiYnU4QmgxOHN2RXFiU1Y3K2FYUmlOZ1VUYVdzbmYwQVg3V0dsSHdv
c3p1Q1BjTkZ4VTcrV3d6YmdlcXRYVTYyRmxIcWsvZlNrZkNvN29POVhLYkg4ZmNO
MVEwTGtIRUdyVnd5eUphZWNFTlJ1OXZJRXVTQ2NOSXg0cm4yVWs3SjZCWHhodGpJ
Nms2WjFVOXp3ZTViSTRZQ3IzS3NZRnNkUzJtUmtGSUJUYTE2R1JNYm1tai9Bb0Rt
cFFpV2xidDhoWkdEM2w1aHRkV0xNYVFPZDFwc1VlRnVaOU9NZlQ3NjM1anR1QXIr
RkFNZEFxbnVJaFBkSWxzbEpjMThVVzArWkI3VkZmVWcwM3FvZTRhTDJLOFlnWFRj
bEdEVWE1Q1JYTm4rd2JJbGtWL3Y2ZGFROFRkbW9lbkdCWFpwL0syUlpLYmliS1Jq
M1FkVVBvTXhERzdLOVpTZTM2ZUZpbXVqV1Y0OFQ5empOMjhGVVJZWXZnZUFmQ2hm
WDVta3dlU2VyWHloSlhIRUlVb3RTZ3ZZQk84MVhLU3dYV3hIcUorMjREVXVqUTBH
eExybTk1bEJuYldURHVqdHpSSjB2VXFVZm5oR2c5SEh6ZGFEcTM0VTc5Ti81NEJl
NVlObjJMNTlsVWQ2Z2kxbWZ4M2RWNXlmUEtIL094SlpQVExOeCtZemdzWEZjVzZH
TnVZcWZhVy9mS09MTGNFeFVlZjJTaDdNeGl5dzdiQWRJRGJPUzhhUjlkbVZnWWpp
U1orcEwrSUJnZHMyOUUwLzVtN0RydEpGTWlEVXF4ajBrOEpEYUhVMjc2cXExM3li
cXplNWJkaUlSWE5oNkxtV0RZL2xmcVMvL2p6a2p4djF2VXNBWmRYU3FITjl1WGhl
dnI2TUR1eU5JbDVJUFBtcGg0Q25COUNLVG5kRitJTk43cll0a0lLZlBqRjB2ejd3
dWhLdnpDbW80eXlkYmc1S1FlVUlhenJNSkQwZWpSNGlOWjlBOTdhbzFNbnVhVWtJ
SEVaL3V6U1BFR0tkeEF4SmlwNmdvalRLMVlRY3M2dFpuejdXbElvVE9ENEttcm5J
UU8waWV3YlFLTjYwcU9hNkVSUW5UTXRXRnpQTWlRRDZTUExGR2RvalFab1ZTK1RD
aFNqa29Pb3RJT2VwNFg3cnkxSTd1Y3ozSG1wSks0MDh5ZlF3MFNscnNEWmZPUGJM
VXc4eG5nczR2UzZBSUEyWXQ1d1ZFOTRVSkZLNlJzZTh0SStRREZsU1ZpdzEzak5N
S2ZSYnk4b2F5R3o0QjZmaUNPa2pvY0Ria3ZMN3YwbTJtYlBTMzV3d0VGVFduN1lk
bmRWaDE3WVBwcDRJZDdwRjF1UFFLWmtBam5aUzY3ZlR3RkFaTjB0bFBkelVZSWR4
cnNncXVkZGlNWHhlWXFZeXJCMD0ifQ==
-----END PQPG PROTECTED PRIVATE KEY-----